src/assets/svg/icons/fa/nuevos/classic/light/octagon-exclamation classic light.svg

<svg xmlns="http://www.w3.org/2000/svg" viewBox="0 0 512 512"><path d="M256 127.1C264.8 127.1 272 135.2 272 143.1V271.1C272 280.8 264.8 287.1 256 287.1C247.2 287.1 240 280.8 240 271.1V143.1C240 135.2 247.2 127.1 256 127.1V127.1zM280 351.1C280 365.3 269.3 375.1 256 375.1C242.7 375.1 232 365.3 232 351.1C232 338.7 242.7 327.1 256 327.1C269.3 327.1 280 338.7 280 351.1zM.0669 191.5C.0669 172.4 7.652 154.1 21.16 140.6L140.6 21.15C154.1 7.648 172.4 .0625 191.5 .0625H320.5C339.6 .0625 357.9 7.648 371.4 21.15L490.8 140.6C504.3 154.1 511.9 172.4 511.9 191.5V320.5C511.9 339.6 504.3 357.9 490.8 371.4L371.4 490.8C357.9 504.3 339.6 511.9 320.5 511.9H191.5C172.4 511.9 154.1 504.3 140.6 490.8L21.15 371.4C7.652 357.9 .0666 339.6 .0666 320.5L.0669 191.5zM43.78 163.2C36.28 170.7 32.07 180.9 32.07 191.5V320.5C32.07 331.1 36.28 341.3 43.78 348.8L163.2 468.2C170.7 475.7 180.9 479.9 191.5 479.9H320.5C331.1 479.9 341.3 475.7 348.8 468.2L468.2 348.8C475.7 341.3 479.9 331.1 479.9 320.5V191.5C479.9 180.9 475.7 170.7 468.2 163.2L348.8 43.78C341.3 36.28 331.1 32.06 320.5 32.06H191.5C180.9 32.06 170.7 36.28 163.2 43.78L43.78 163.2zM43.78 348.8L21.15 371.4z"/></svg>

<svg xmlns="http://www.w3.org/2000/svg" viewBox="0 0 512 512"><!--! Font Awesome Pro 6.4.0 by @fontawesome - https://fontawesome.com License - https://fontawesome.com/license (Commercial License) Copyright 2023 Fonticons, Inc. --><path d="M191.5 32.1c-10.6 0-20.8 4.2-28.3 11.7L43.8 163.2c-7.5 7.5-11.7 17.7-11.7 28.3v129c0 10.6 4.2 20.8 11.7 28.3L21.2 371.4C7.7 357.9 .1 339.6 .1 320.5v-129c0-19.1 7.6-37.4 21.1-50.9L140.6 21.2C154.1 7.7 172.4 .1 191.5 .1h129c19.1 0 37.4 7.6 50.9 21.1L490.8 140.6c13.5 13.5 21.1 31.8 21.1 50.9v129c0 19.1-7.6 37.4-21.1 50.9L371.4 490.8c-13.5 13.5-31.8 21.1-50.9 21.1h-129c-19.1 0-37.4-7.6-50.9-21.1L21.2 371.4l22.6-22.6L163.2 468.2c7.5 7.5 17.7 11.7 28.3 11.7h129c10.6 0 20.8-4.2 28.3-11.7L468.2 348.8c7.5-7.5 11.7-17.7 11.7-28.3v-129c0-10.6-4.2-20.8-11.7-28.3L348.8 43.8c-7.5-7.5-17.7-11.7-28.3-11.7h-129zM256 128c8.8 0 16 7.2 16 16V272c0 8.8-7.2 16-16 16s-16-7.2-16-16V144c0-8.8 7.2-16 16-16zM232 352a24 24 0 1 1 48 0 24 24 0 1 1 -48 0z"/></svg>
